X: 2
T: The Maids Of Ardagh
R: polka
M: 2/4
L: 1/8
K: Amix
ef/e/ ce|fe a2|ef/e/ ce|fe c/B/A|ef/e/ ce|fe a2|ef/e/ cB|1 BA A2:|2 BA AG||FA BA|de f2|fe/f/ gc|ed BA|FA BA|de f2|fe/f/ gc|ed d2:|


Tune 466	Setting 466

